src/blocks/clients/images/mev-boost.svg

<svg width="128" height="64" viewBox="0 0 128 64" fill="none" xmlns="http://www.w3.org/2000/svg">
<path d="M46.0232 36.2667V28.7422H47.7374L47.9043 29.7586C48.147 29.3945 48.4656 29.1063 48.8601 28.8939C49.2646 28.6714 49.7298 28.5601 50.2557 28.5601C51.4188 28.5601 52.243 29.0102 52.7285 29.9103C53.0016 29.4956 53.3657 29.1669 53.8208 28.9242C54.286 28.6815 54.7917 28.5601 55.3378 28.5601C56.3188 28.5601 57.0723 28.8534 57.5982 29.44C58.1241 30.0266 58.387 30.8862 58.387 32.019V36.2667H56.4452V32.201C56.4452 31.5537 56.3188 31.0582 56.066 30.7143C55.8233 30.3705 55.444 30.1985 54.9282 30.1985C54.4023 30.1985 53.9775 30.3907 53.6539 30.775C53.3404 31.1593 53.1836 31.6953 53.1836 32.3831V36.2667H51.2418V32.201C51.2418 31.5537 51.1154 31.0582 50.8625 30.7143C50.6097 30.3705 50.2203 30.1985 49.6944 30.1985C49.1786 30.1985 48.7589 30.3907 48.4353 30.775C48.1218 31.1593 47.965 31.6953 47.965 32.3831V36.2667H46.0232Z" fill="currentColor"/>
<path d="M63.2798 36.4487C62.5213 36.4487 61.8488 36.2869 61.2622 35.9633C60.6756 35.6396 60.2154 35.1845 59.8817 34.5979C59.5479 34.0113 59.3811 33.3337 59.3811 32.5651C59.3811 31.7864 59.5429 31.0936 59.8665 30.4868C60.2003 29.8799 60.6554 29.4097 61.2318 29.0759C61.8184 28.7321 62.5062 28.5601 63.295 28.5601C64.0333 28.5601 64.6856 28.7219 65.252 29.0456C65.8184 29.3692 66.2583 29.8142 66.5718 30.3806C66.8955 30.9368 67.0573 31.5588 67.0573 32.2465C67.0573 32.3578 67.0522 32.4741 67.0421 32.5954C67.0421 32.7168 67.037 32.8432 67.0269 32.9747H61.3077C61.3482 33.5613 61.5504 34.0215 61.9145 34.3552C62.2887 34.6889 62.7388 34.8558 63.2647 34.8558C63.6591 34.8558 63.9878 34.7699 64.2507 34.5979C64.5238 34.4159 64.7261 34.1833 64.8576 33.9001H66.8297C66.6881 34.3754 66.4505 34.8103 66.1167 35.2047C65.7931 35.5891 65.3885 35.8925 64.9031 36.115C64.4277 36.3375 63.8867 36.4487 63.2798 36.4487ZM63.295 30.1378C62.8197 30.1378 62.4 30.2744 62.0359 30.5474C61.6718 30.8104 61.4392 31.2149 61.338 31.7611H65.0851C65.0548 31.2655 64.8727 30.8711 64.539 30.5778C64.2052 30.2845 63.7906 30.1378 63.295 30.1378Z" fill="currentColor"/>
<path d="M69.8202 36.2667L67.0592 28.7422H69.092L71.0035 34.4311L72.9149 28.7422H74.9478L72.1716 36.2667H69.8202Z" fill="currentColor"/>
<path d="M75.3988 32.6865V31.0632H81.7552V32.6865H75.3988Z" fill="currentColor"/>
<g opacity="0.6">
<path d="M88.0536 36.4487C87.4872 36.4487 86.9917 36.3425 86.5669 36.1301C86.1421 35.9177 85.7983 35.6194 85.5353 35.2351L85.3229 36.2667H83.5935V25.344H85.5353V29.8193C85.778 29.4855 86.0966 29.1922 86.491 28.9394C86.8956 28.6865 87.4164 28.5601 88.0536 28.5601C88.7615 28.5601 89.3936 28.732 89.9499 29.0759C90.5061 29.4198 90.9461 29.89 91.2697 30.4867C91.5933 31.0835 91.7552 31.7611 91.7552 32.5196C91.7552 33.2781 91.5933 33.9557 91.2697 34.5524C90.9461 35.139 90.5061 35.6042 89.9499 35.9481C89.3936 36.2818 88.7615 36.4487 88.0536 36.4487ZM87.644 34.7496C88.2609 34.7496 88.7717 34.5423 89.1762 34.1276C89.5807 33.713 89.783 33.177 89.783 32.5196C89.783 31.8622 89.5807 31.3211 89.1762 30.8963C88.7717 30.4716 88.2609 30.2592 87.644 30.2592C87.017 30.2592 86.5012 30.4716 86.0966 30.8963C85.7022 31.311 85.505 31.847 85.505 32.5044C85.505 33.1618 85.7022 33.7029 86.0966 34.1276C86.5012 34.5423 87.017 34.7496 87.644 34.7496Z" fill="currentColor"/>
<path d="M96.4935 36.4487C95.7654 36.4487 95.108 36.2818 94.5214 35.9481C93.9449 35.6143 93.4847 35.1542 93.1409 34.5676C92.8071 33.9709 92.6403 33.2832 92.6403 32.5044C92.6403 31.7257 92.8122 31.043 93.1561 30.4564C93.4999 29.8597 93.9601 29.3945 94.5366 29.0607C95.1231 28.727 95.7805 28.5601 96.5087 28.5601C97.2268 28.5601 97.874 28.727 98.4505 29.0607C99.0371 29.3945 99.4973 29.8597 99.831 30.4564C100.175 31.043 100.347 31.7257 100.347 32.5044C100.347 33.2832 100.175 33.9709 99.831 34.5676C99.4973 35.1542 99.0371 35.6143 98.4505 35.9481C97.8639 36.2818 97.2116 36.4487 96.4935 36.4487ZM96.4935 34.7648C96.9992 34.7648 97.4392 34.5777 97.8134 34.2035C98.1876 33.8192 98.3747 33.2528 98.3747 32.5044C98.3747 31.756 98.1876 31.1947 97.8134 30.8205C97.4392 30.4362 97.0043 30.244 96.5087 30.244C95.9929 30.244 95.5479 30.4362 95.1737 30.8205C94.8096 31.1947 94.6276 31.756 94.6276 32.5044C94.6276 33.2528 94.8096 33.8192 95.1737 34.2035C95.5479 34.5777 95.9879 34.7648 96.4935 34.7648Z" fill="currentColor"/>
<path d="M105.087 36.4487C104.359 36.4487 103.701 36.2818 103.115 35.9481C102.538 35.6143 102.078 35.1542 101.734 34.5676C101.4 33.9709 101.233 33.2832 101.233 32.5044C101.233 31.7257 101.405 31.043 101.749 30.4564C102.093 29.8597 102.553 29.3945 103.13 29.0607C103.716 28.727 104.374 28.5601 105.102 28.5601C105.82 28.5601 106.467 28.727 107.044 29.0607C107.63 29.3945 108.09 29.8597 108.424 30.4564C108.768 31.043 108.94 31.7257 108.94 32.5044C108.94 33.2832 108.768 33.9709 108.424 34.5676C108.09 35.1542 107.63 35.6143 107.044 35.9481C106.457 36.2818 105.805 36.4487 105.087 36.4487ZM105.087 34.7648C105.592 34.7648 106.032 34.5777 106.407 34.2035C106.781 33.8192 106.968 33.2528 106.968 32.5044C106.968 31.756 106.781 31.1947 106.407 30.8205C106.032 30.4362 105.597 30.244 105.102 30.244C104.586 30.244 104.141 30.4362 103.767 30.8205C103.403 31.1947 103.221 31.756 103.221 32.5044C103.221 33.2528 103.403 33.8192 103.767 34.2035C104.141 34.5777 104.581 34.7648 105.087 34.7648Z" fill="currentColor"/>
<path d="M113.179 36.4487C112.512 36.4487 111.925 36.3425 111.42 36.1301C110.914 35.9076 110.509 35.6042 110.206 35.2199C109.902 34.8356 109.72 34.3906 109.66 33.8849H111.617C111.677 34.1782 111.839 34.431 112.102 34.6434C112.375 34.8457 112.724 34.9468 113.149 34.9468C113.574 34.9468 113.882 34.8609 114.074 34.6889C114.277 34.517 114.378 34.3198 114.378 34.0973C114.378 33.7737 114.236 33.5562 113.953 33.445C113.67 33.3236 113.275 33.2073 112.77 33.0961C112.446 33.0253 112.117 32.9393 111.784 32.8382C111.45 32.737 111.141 32.6106 110.858 32.4589C110.585 32.2971 110.363 32.0948 110.191 31.8521C110.019 31.5992 109.933 31.2908 109.933 30.9267C109.933 30.2592 110.196 29.6979 110.722 29.2428C111.258 28.7877 112.006 28.5601 112.967 28.5601C113.857 28.5601 114.565 28.7674 115.091 29.1821C115.627 29.5968 115.945 30.1682 116.046 30.8963H114.211C114.1 30.3401 113.68 30.062 112.952 30.062C112.588 30.062 112.304 30.1328 112.102 30.2744C111.91 30.416 111.814 30.5929 111.814 30.8053C111.814 31.0278 111.961 31.2048 112.254 31.3363C112.547 31.4678 112.937 31.5891 113.422 31.7004C113.948 31.8217 114.428 31.9583 114.863 32.11C115.308 32.2516 115.662 32.469 115.925 32.7623C116.188 33.0455 116.32 33.4551 116.32 33.9911C116.33 34.4563 116.208 34.876 115.955 35.2502C115.703 35.6244 115.339 35.9177 114.863 36.1301C114.388 36.3425 113.827 36.4487 113.179 36.4487Z" fill="currentColor"/>
<path d="M120.549 36.2667C119.76 36.2667 119.128 36.0745 118.652 35.6902C118.177 35.3059 117.939 34.6232 117.939 33.6422V30.3654H116.65V28.7422H117.939L118.167 26.7245H119.881V28.7422H121.914V30.3654H119.881V33.6574C119.881 34.0214 119.957 34.2743 120.109 34.4159C120.27 34.5474 120.543 34.6131 120.928 34.6131H121.868V36.2667H120.549Z" fill="currentColor"/>
</g>
<path opacity="0.45" fill-rule="evenodd" clip-rule="evenodd" d="M21.3333 24.8889L7.11108 32L21.3333 39.1111V24.8889Z" fill="currentColor"/>
<path opacity="0.8" fill-rule="evenodd" clip-rule="evenodd" d="M19.9111 51.2L8.70117 34.3851L19.9111 39.9901V51.2Z" fill="currentColor"/>
<path opacity="0.3" fill-rule="evenodd" clip-rule="evenodd" d="M21.3333 24.8889L7.11108 32L21.3333 10.6667V24.8889Z" fill="currentColor"/>
<path opacity="0.8" fill-rule="evenodd" clip-rule="evenodd" d="M22.7556 24.0099L33.9655 29.6149L22.7556 12.8V24.0099Z" fill="currentColor"/>
<path opacity="0.6" fill-rule="evenodd" clip-rule="evenodd" d="M21.3334 24.8889L35.5556 32L21.3334 39.1111V24.8889Z" fill="currentColor"/>
<path opacity="0.8" fill-rule="evenodd" clip-rule="evenodd" d="M21.3334 53.3333L35.5556 32L21.3334 39.1111V53.3333Z" fill="currentColor"/>
</svg>

<svg xmlns="http://www.w3.org/2000/svg" width="128" height="64" fill="none" viewBox="0 0 128 64"><path fill="currentColor" d="M46.023 36.267v-7.525h1.714l.167 1.017c.243-.364.562-.653.956-.865.405-.223.87-.334 1.396-.334 1.163 0 1.987.45 2.472 1.35a2.938 2.938 0 0 1 1.093-.986 3.23 3.23 0 0 1 1.517-.364c.98 0 1.734.293 2.26.88.526.587.789 1.446.789 2.579v4.248h-1.942V32.2c0-.647-.126-1.143-.379-1.487-.243-.343-.622-.515-1.138-.515-.526 0-.95.192-1.274.576-.314.384-.47.92-.47 1.608v3.884h-1.942V32.2c0-.647-.127-1.143-.38-1.487-.252-.343-.642-.515-1.168-.515-.515 0-.935.192-1.259.576-.313.384-.47.92-.47 1.608v3.884h-1.942ZM63.28 36.449c-.759 0-1.431-.162-2.018-.486a3.514 3.514 0 0 1-1.38-1.365c-.334-.587-.5-1.264-.5-2.033 0-.779.16-1.471.485-2.078a3.595 3.595 0 0 1 1.365-1.411c.586-.344 1.274-.516 2.063-.516.738 0 1.39.162 1.957.486a3.417 3.417 0 0 1 1.32 1.335c.323.556.485 1.178.485 1.865 0 .112-.005.228-.015.35 0 .12-.005.247-.015.379h-5.72c.041.586.243 1.047.607 1.38.375.334.825.5 1.35.5.395 0 .724-.085.987-.257.273-.182.475-.415.607-.698h1.972a3.59 3.59 0 0 1-.713 1.305 3.427 3.427 0 0 1-1.214.91c-.475.222-1.016.334-1.623.334Zm.015-6.311c-.475 0-.895.136-1.26.41-.363.262-.596.667-.697 1.213h3.747c-.03-.495-.212-.89-.546-1.183-.334-.293-.748-.44-1.244-.44ZM69.82 36.267l-2.76-7.525h2.032l1.912 5.69 1.91-5.69h2.034l-2.776 7.525H69.82ZM75.399 32.687v-1.624h6.356v1.624H75.4Z"/><g fill="currentColor" opacity=".6"><path d="M88.054 36.449c-.567 0-1.062-.106-1.487-.319a2.68 2.68 0 0 1-1.032-.895l-.212 1.032h-1.73V25.344h1.942v4.475c.243-.334.562-.627.956-.88.405-.253.925-.379 1.563-.379.707 0 1.34.172 1.896.516.556.344.996.814 1.32 1.41.323.598.485 1.275.485 2.034 0 .758-.162 1.436-.485 2.032a3.726 3.726 0 0 1-1.32 1.396c-.556.334-1.189.5-1.896.5Zm-.41-1.7c.617 0 1.128-.207 1.532-.621.405-.415.607-.951.607-1.608 0-.658-.202-1.199-.607-1.624-.404-.424-.915-.637-1.532-.637-.627 0-1.143.213-1.547.637-.395.415-.592.951-.592 1.608 0 .658.197 1.199.592 1.624.404.414.92.622 1.547.622ZM96.493 36.449a3.917 3.917 0 0 1-1.972-.5 3.765 3.765 0 0 1-1.38-1.381c-.334-.597-.5-1.285-.5-2.064 0-.778.171-1.461.515-2.048a3.732 3.732 0 0 1 1.38-1.395 3.917 3.917 0 0 1 1.973-.5c.718 0 1.365.166 1.942.5a3.59 3.59 0 0 1 1.38 1.395c.344.587.516 1.27.516 2.048 0 .78-.172 1.467-.516 2.064a3.62 3.62 0 0 1-1.38 1.38c-.587.334-1.24.5-1.957.5Zm0-1.684c.506 0 .946-.187 1.32-.562.375-.384.562-.95.562-1.699 0-.748-.187-1.31-.562-1.683-.374-.385-.809-.577-1.304-.577-.516 0-.961.192-1.335.576-.364.375-.546.936-.546 1.684 0 .749.182 1.315.546 1.7.374.374.814.56 1.32.56ZM105.087 36.449a3.916 3.916 0 0 1-1.972-.5 3.764 3.764 0 0 1-1.381-1.381c-.334-.597-.501-1.285-.501-2.064 0-.778.172-1.461.516-2.048a3.731 3.731 0 0 1 1.381-1.395 3.916 3.916 0 0 1 1.972-.5c.718 0 1.365.166 1.942.5a3.596 3.596 0 0 1 1.38 1.395c.344.587.516 1.27.516 2.048 0 .78-.172 1.467-.516 2.064a3.625 3.625 0 0 1-1.38 1.38c-.587.334-1.239.5-1.957.5Zm0-1.684c.505 0 .945-.187 1.32-.562.374-.384.561-.95.561-1.699 0-.748-.187-1.31-.561-1.683-.375-.385-.81-.577-1.305-.577a1.8 1.8 0 0 0-1.335.576c-.364.375-.546.936-.546 1.684 0 .749.182 1.315.546 1.7.374.374.814.56 1.32.56ZM113.179 36.449c-.667 0-1.254-.106-1.759-.319-.506-.222-.911-.526-1.214-.91a2.602 2.602 0 0 1-.546-1.335h1.957c.06.293.222.546.485.758.273.203.622.304 1.047.304.425 0 .733-.086.925-.258.203-.172.304-.37.304-.592 0-.323-.142-.54-.425-.652-.283-.121-.678-.238-1.183-.349a12.81 12.81 0 0 1-.986-.258 5.063 5.063 0 0 1-.926-.38 2.144 2.144 0 0 1-.667-.606c-.172-.253-.258-.561-.258-.925 0-.668.263-1.23.789-1.684.536-.455 1.284-.683 2.245-.683.89 0 1.598.207 2.124.622.536.415.854.986.955 1.714h-1.835c-.111-.556-.531-.834-1.259-.834-.364 0-.648.07-.85.212-.192.142-.288.319-.288.531 0 .223.147.4.44.531.293.132.683.253 1.168.364a13.81 13.81 0 0 1 1.441.41c.445.142.799.359 1.062.652.263.283.395.693.395 1.23.01.464-.112.884-.365 1.258-.252.374-.616.668-1.092.88-.475.212-1.036.319-1.684.319ZM120.549 36.267c-.789 0-1.421-.193-1.897-.577-.475-.384-.713-1.067-.713-2.048v-3.277h-1.289v-1.623h1.289l.228-2.018h1.714v2.018h2.033v1.623h-2.033v3.292c0 .364.076.617.228.759.161.131.434.197.819.197h.94v1.654h-1.319Z"/></g><path fill="currentColor" fill-rule="evenodd" d="M21.333 24.889 7.111 32l14.222 7.111V24.89Z" clip-rule="evenodd" opacity=".45"/><path fill="currentColor" fill-rule="evenodd" d="M19.911 51.2 8.701 34.385l11.21 5.605V51.2Z" clip-rule="evenodd" opacity=".8"/><path fill="currentColor" fill-rule="evenodd" d="M21.333 24.889 7.111 32l14.222-21.333v14.222Z" clip-rule="evenodd" opacity=".3"/><path fill="currentColor" fill-rule="evenodd" d="m22.756 24.01 11.21 5.605L22.755 12.8v11.21Z" clip-rule="evenodd" opacity=".8"/><path fill="currentColor" fill-rule="evenodd" d="M21.333 24.889 35.556 32l-14.223 7.111V24.89Z" clip-rule="evenodd" opacity=".6"/><path fill="currentColor" fill-rule="evenodd" d="M21.333 53.333 35.556 32l-14.223 7.111v14.222Z" clip-rule="evenodd" opacity=".8"/></svg>
